X:39
T:Blanchards Hornpipe. JMP.039
T:Fishers,aka. JMP.039
T:Egg,aka. JMP.039
M:C|
L:1/8
Q:1/2=90
C:â€38â€¦or Fishersâ€
S:John Miller MS. Perth, 1799.(for the fife)
R:.Hornpipe
O:Scotland
A:Perth
N:â€™or Fishersâ€™, it says in smaller, possibly pencil, writing.
H:1799
Z:vmp.C. Graebe
K:D major
â€œkey in MS shown as G majorâ€dAFA GBAG |\
FAFA GBAG | FDFD GEGE | AFED CECA, |!
dAFA GBAG |FAFA GBAG | FdBg fedc | d2d2â€³minimâ€d2 :|!
|:ecAc ecge | fdAd fdaf | ecAc ecge | fdcB A3 E |!
BGEG BGdB | AFDF AFcA | Bdcg fedc | d2d2â€³minimâ€d2 ğŸ˜

